X: 9
T: Coen's Memories
R: reel
M: 4/4
L: 1/8
K: Gdor
F|:GFDC DG (3ABc|dgge fdcA|F3 A G2 FD|CF~F2 GFDF|
CFGF G2 (3ABc|dgge fdcA|FGAc d2 cA|1 FGAF G3 A:|2 FGAF G2 (3ABc||
|:dg~g2 agfd|g2 ag fdcA|c3 d f3 a|gfga f2 dc|
dgag agfd|g2 ag fdcA|FGAc d2 cA|1 FGAF GABc:|2 FGAF G3 A|]


Tune 558	Setting 23861

